flaticon/household/window-7.svg

<svg xmlns="http://www.w3.org/2000/svg" width="32" height="32" viewBox="0 0 24 24">
    <path d="M 21.761719 21.558594 L 21.761719 9.761719 C 21.761719 4.378906 17.382812 0 12 0 C 6.617188 0 2.238281 4.378906 2.238281 9.761719 L 2.238281 21.558594 L 1.421875 21.558594 L 1.421875 24 L 22.578125 24 L 22.578125 21.558594 Z M 3.050781 9.761719 C 3.050781 4.828125 7.066406 0.8125 12 0.8125 C 16.933594 0.8125 20.949219 4.828125 20.949219 9.761719 L 20.949219 21.558594 L 3.050781 21.558594 Z M 21.761719 23.1875 L 2.238281 23.1875 L 2.238281 22.371094 L 21.761719 22.371094 Z M 21.761719 23.1875"/>
    <path d="M 12 1.21875 C 7.566406 1.21875 3.910156 4.621094 3.5 8.949219 L 3.457031 8.949219 L 3.457031 21.152344 L 20.542969 21.152344 L 20.542969 8.949219 L 20.5 8.949219 C 20.089844 4.621094 16.433594 1.21875 12 1.21875 Z M 19.683594 8.949219 L 12.980469 8.949219 L 17.542969 4.386719 C 18.714844 5.597656 19.5 7.183594 19.683594 8.949219 Z M 16.949219 3.832031 L 12 8.78125 L 7.050781 3.832031 C 8.394531 2.710938 10.117188 2.035156 12 2.035156 C 13.882812 2.035156 15.605469 2.710938 16.949219 3.832031 Z M 6.457031 4.386719 L 11.019531 8.949219 L 4.316406 8.949219 C 4.5 7.183594 5.285156 5.597656 6.457031 4.386719 Z M 4.269531 9.761719 L 11.59375 9.761719 L 11.59375 14.644531 L 4.269531 14.644531 Z M 4.269531 20.339844 L 4.269531 15.457031 L 11.59375 15.457031 L 11.59375 20.339844 Z M 19.730469 20.339844 L 12.40625 20.339844 L 12.40625 15.457031 L 19.730469 15.457031 Z M 12.40625 14.644531 L 12.40625 9.761719 L 19.730469 9.761719 L 19.730469 14.644531 Z M 12.40625 14.644531"/>
    <path d="M11.304688 7.203125C11.386719 7.28125 11.488281 7.320312 11.59375 7.320312 11.699219 7.320312 11.800781 7.28125 11.878906 7.203125L12.695312 6.390625C12.851562 6.230469 12.851562 5.972656 12.695312 5.8125 12.535156 5.65625 12.277344 5.65625 12.121094 5.8125L11.304688 6.628906C11.148438 6.785156 11.148438 7.042969 11.304688 7.203125zM13.628906 5.289062C13.628906 5.511719 13.445312 5.695312 13.21875 5.695312 12.996094 5.695312 12.8125 5.511719 12.8125 5.289062 12.8125 5.0625 12.996094 4.882812 13.21875 4.882812 13.445312 4.882812 13.628906 5.0625 13.628906 5.289062zM12 5.289062C12 5.511719 11.816406 5.695312 11.59375 5.695312 11.367188 5.695312 11.1875 5.511719 11.1875 5.289062 11.1875 5.0625 11.367188 4.882812 11.59375 4.882812 11.816406 4.882812 12 5.0625 12 5.289062zM5.609375 11.101562L4.796875 11.914062C4.636719 12.074219 4.636719 12.332031 4.796875 12.492188 4.875 12.570312 4.980469 12.609375 5.085938 12.609375 5.1875 12.609375 5.292969 12.570312 5.371094 12.492188L6.1875 11.675781C6.34375 11.519531 6.34375 11.261719 6.1875 11.101562 6.027344 10.941406 5.769531 10.941406 5.609375 11.101562zM7.117188 10.578125C7.117188 10.800781 6.9375 10.984375 6.710938 10.984375 6.488281 10.984375 6.304688 10.800781 6.304688 10.578125 6.304688 10.351562 6.488281 10.167969 6.710938 10.167969 6.9375 10.167969 7.117188 10.351562 7.117188 10.578125zM5.492188 10.578125C5.492188 10.800781 5.308594 10.984375 5.085938 10.984375 4.859375 10.984375 4.679688 10.800781 4.679688 10.578125 4.679688 10.351562 4.859375 10.167969 5.085938 10.167969 5.308594 10.167969 5.492188 10.351562 5.492188 10.578125zM9.679688 18.425781L8.863281 19.238281C8.707031 19.398438 8.707031 19.652344 8.863281 19.8125 8.945312 19.890625 9.046875 19.933594 9.152344 19.933594 9.257812 19.933594 9.359375 19.890625 9.441406 19.8125L10.253906 19C10.414062 18.839844 10.414062 18.582031 10.253906 18.425781 10.09375 18.265625 9.835938 18.265625 9.679688 18.425781zM11.1875 17.898438C11.1875 18.121094 11.003906 18.304688 10.78125 18.304688 10.554688 18.304688 10.371094 18.121094 10.371094 17.898438 10.371094 17.671875 10.554688 17.492188 10.78125 17.492188 11.003906 17.492188 11.1875 17.671875 11.1875 17.898438zM9.558594 17.898438C9.558594 18.121094 9.378906 18.304688 9.152344 18.304688 8.929688 18.304688 8.746094 18.121094 8.746094 17.898438 8.746094 17.671875 8.929688 17.492188 9.152344 17.492188 9.378906 17.492188 9.558594 17.671875 9.558594 17.898438zM17.289062 19.933594C17.390625 19.933594 17.496094 19.890625 17.574219 19.8125L18.390625 19C18.546875 18.839844 18.546875 18.582031 18.390625 18.425781 18.230469 18.265625 17.972656 18.265625 17.8125 18.425781L17 19.238281C16.839844 19.398438 16.839844 19.652344 17 19.8125 17.078125 19.890625 17.183594 19.933594 17.289062 19.933594zM19.320312 17.898438C19.320312 18.121094 19.140625 18.304688 18.914062 18.304688 18.691406 18.304688 18.507812 18.121094 18.507812 17.898438 18.507812 17.671875 18.691406 17.492188 18.914062 17.492188 19.140625 17.492188 19.320312 17.671875 19.320312 17.898438zM17.695312 17.898438C17.695312 18.121094 17.511719 18.304688 17.289062 18.304688 17.0625 18.304688 16.882812 18.121094 16.882812 17.898438 16.882812 17.671875 17.0625 17.492188 17.289062 17.492188 17.511719 17.492188 17.695312 17.671875 17.695312 17.898438zM17.8125 11.101562L17 11.914062C16.839844 12.074219 16.839844 12.332031 17 12.492188 17.078125 12.570312 17.183594 12.609375 17.289062 12.609375 17.390625 12.609375 17.496094 12.570312 17.574219 12.492188L18.390625 11.675781C18.546875 11.519531 18.546875 11.261719 18.390625 11.101562 18.230469 10.941406 17.972656 10.941406 17.8125 11.101562zM19.320312 10.578125C19.320312 10.800781 19.140625 10.984375 18.914062 10.984375 18.691406 10.984375 18.507812 10.800781 18.507812 10.578125 18.507812 10.351562 18.691406 10.167969 18.914062 10.167969 19.140625 10.167969 19.320312 10.351562 19.320312 10.578125zM17.695312 10.578125C17.695312 10.800781 17.511719 10.984375 17.289062 10.984375 17.0625 10.984375 16.882812 10.800781 16.882812 10.578125 16.882812 10.351562 17.0625 10.167969 17.289062 10.167969 17.511719 10.167969 17.695312 10.351562 17.695312 10.578125zM17.695312 10.578125"/>
</svg>

<svg xmlns="http://www.w3.org/2000/svg" width="32" height="32" viewBox="0 0 24 24">
    <path d="M21.762 21.559V9.762C21.762 4.379 17.382 0 12 0 6.617 0 2.238 4.379 2.238 9.762v11.797h-.816V24h21.156v-2.441zM3.05 9.762C3.05 4.828 7.066.812 12 .812s8.95 4.016 8.95 8.95v11.797H3.05zm18.71 13.425H2.239v-.816h19.524zm0 0"/>
    <path d="M12 1.219c-4.434 0-8.09 3.402-8.5 7.73h-.043v12.203h17.086V8.95H20.5c-.41-4.328-4.066-7.73-8.5-7.73zm7.684 7.73H12.98l4.563-4.562a7.701 7.701 0 0 1 2.14 4.562zm-2.735-5.117L12 8.782l-4.95-4.95A7.696 7.696 0 0 1 12 2.035c1.883 0 3.605.676 4.95 1.797zm-10.492.555l4.563 4.562H4.316a7.701 7.701 0 0 1 2.141-4.562zM4.27 9.762h7.324v4.883H4.27zm0 10.578v-4.883h7.324v4.883zm15.46 0h-7.324v-4.883h7.324zm-7.324-5.695V9.762h7.324v4.883zm0 0"/>
    <path d="M11.305 7.203a.414.414 0 0 0 .289.117c.105 0 .207-.039.285-.117l.816-.812a.415.415 0 0 0 0-.579.41.41 0 0 0-.574 0l-.816.817a.41.41 0 0 0 0 .574zm0 0M13.629 5.29a.408.408 0 0 1-.816 0c0-.228.183-.407.406-.407.226 0 .41.18.41.406zm0 0M12 5.29a.406.406 0 1 1-.813 0 .406.406 0 0 1 .813 0zm0 0M5.61 11.102l-.813.812a.408.408 0 0 0 .574.578l.816-.816a.408.408 0 0 0-.578-.574zm0 0M7.117 10.578a.406.406 0 1 1-.812 0 .407.407 0 0 1 .813 0zm0 0M5.492 10.578a.406.406 0 1 1-.813 0 .407.407 0 1 1 .813 0zm0 0M9.68 18.426l-.817.812a.41.41 0 0 0 0 .575.419.419 0 0 0 .29.12.419.419 0 0 0 .288-.12l.813-.813a.403.403 0 0 0 0-.574.403.403 0 0 0-.574 0zm0 0M11.188 17.898a.408.408 0 0 1-.817 0c0-.226.184-.406.41-.406.223 0 .406.18.406.406zm0 0M9.559 17.898a.406.406 0 1 1-.812.001.406.406 0 0 1 .812 0zm0 0M17.29 19.934a.41.41 0 0 0 .284-.122l.817-.812a.408.408 0 0 0-.578-.574l-.813.812a.403.403 0 0 0 0 .575.412.412 0 0 0 .29.12zm0 0M19.32 17.898a.406.406 0 1 1-.812.001.406.406 0 0 1 .812 0zm0 0M17.695 17.898a.406.406 0 1 1-.813 0 .406.406 0 0 1 .813 0zm0 0M17.813 11.102l-.813.812a.408.408 0 0 0 .574.578l.817-.816a.408.408 0 0 0-.578-.574zm0 0M19.32 10.578a.406.406 0 1 1-.812 0 .407.407 0 0 1 .813 0zm0 0M17.695 10.578a.406.406 0 1 1-.813 0 .407.407 0 1 1 .813 0zm0 0"/>
</svg>
